X:1
T:A Shropshire Lad
T:Think no more, Lad, laugh, be jolly
T:A Shropshire Lad
T:8. Think no more, Lad, laugh, be jolly
T:Arthur Somervell
T:A. E. Housman
T:Creative Commons copyright waiver (CC0 1.0 Universal)
T:Creative Commons copyright waiver (CC0 1.0 Universal)
T:Creative Commons copyright waiver (CC0 1.0 Universal)
T:Creative Commons copyright waiver (CC0 1.0 Universal)
C:Arthur Somervell
Z:A. E. Housman
Z:Creative Commons copyright waiver (CC0 1.0 Universal)
L:1/8
Q:1/4=144
M:3/4
K:G
V:1 treble nm="Voice"
V:1
"^Allegro" z6 | z6 | z6 |!ff! G (B/c/) d G !>!e2- | e d c B A G | F G A3 A | D4 z2 | z6 | %8
w: |||Think no * more, lad; laugh,|_ be jol- ly; Why should|men make haste to|die?||
 G3/2 F/ E A A ^G | (A>B) c2 A A | e3 d c B | (c>B) A2 z z | z6 | z6 | z6 | z6 | z6 | z6 | z6 | %19
w: Emp- ty heads and tongues a-|talk- * ing Make the|rough road eas- y|walk- * ing,||||||||
 z2 z2 F (G/A/) | (B>c B3/2) c/ B3/2 G/ | E4 z2 | A3/2 _B/ A =F G B | A2 d2 z z/ z/ | z6 | z6 | %26
w: Spins the *|hea- * * vy world a-|round.|If young hearts were not so|cle- ver,|||
 z6 | z6 | z6 | z6 | z6 | z6 | z6 | z z z z A G | F G A3 A | D6 | z6 | G3/2 F/ E A A ^G | %38
w: |||||||Why should|men make haste to|die?||Emp- ty heads and tongues a-|
 (A>B) c2 z z | z6 | z6 | z6 | z6 | z6 | z6 | z6 | z6 | z6 |] %48
w: talk- * ing||||||||||

